X:12
T:Romance du Barbier du Seville.
C:John Malchair's Third Collection of Tunes
F:https://www.vwml.org/record/Malchair/3619/p1
F:www.vwml.org/topics/historic-dance-and-tune-books/Malchair
Z:Eric Conrad Feb 2020
M:2/4
L:1/8
R:march
K:G
P:A
|: d2BB | B3G | AAAB | dcB2 | g2fa | g2fa | gdcB | B2Az :|
P:B
|: A2Ac | BBBd | dAAc | {/c}B3d | f2ed | f2ed | gd =f/e/d/c/ | B2!mordent!A2 | G4 :|



% %%%%%%%%%%%%%%%%%%%%%%%%%%%%%%%%%%%%%%%%%%%%%%%%%%%%%%%%%%%%%%%%%%%%%%%%%%%%%%%%%%%%
% PAGES 26-50
% %%%%%%%%%%%%%%%%%%%%%%%%%%%%%%%%%%%%%%%%%%%%%%%%%%%%%%%%%%%%%%%%%%%%%%%%%%%%%%%%%%%%

